X:1
T:Mervyn Spratt, Esq.
T:Mervyn Spratt, Esq.
T:Carolan
C:Carolan
L:1/8
M:6/8
K:F
V:1 treble 
V:1
 f2 c (d/e/f)d | cAF cAF | d(B/c/d){d} cAc | d/e/ff gec | c'(a/b/c'/a/) f(a/b/c'/a) | %5
 f(a/b/c'/a) c'af | g(e/f/g/e/) c(e/f/g/e) | c(e/f/g/e/) gec | d(B/c/d){d} cAc | (d/e/f)f gec | %10
 dcB Acc | (f3 f3) || (c/B/A/G/)F Fcc | AFF Fcc | (d/c/B/A/)G Gdd | BGG gec | %16
 c'(a/b/c'/d'/) c'(a/b/c') | d'(b/c'/d'/e') d'(b/c'/d') | (c'/b/a/g/)f{f} Tece | (f3 f3) || %20

